app/img/step-3/var-2.svg

<svg width="90" height="90" viewBox="0 0 90 90" fill="none" xmlns="http://www.w3.org/2000/svg">
<path d="M45 90C69.8528 90 90 69.8528 90 45C90 20.1472 69.8528 0 45 0C20.1472 0 0 20.1472 0 45C0 69.8528 20.1472 90 45 90Z" fill="#FF6B6B"/>
<path d="M45 0V90C69.8528 90 90 69.8528 90 45C90 20.1472 69.8528 0 45 0Z" fill="#FF1F3D"/>
<path d="M61.7007 22.3996C61.6075 21.6107 61.1637 20.9057 60.4924 20.4808C55.8577 17.5468 50.5006 15.9961 45.0002 15.9961C29.4494 15.9961 16.7193 28.2985 16.0276 43.6816H13.3596C12.3545 43.6816 11.4508 44.2401 11.0013 45.1392C10.5517 46.0382 10.6471 47.0962 11.2502 47.9004L19.1604 58.4473C19.6631 59.1175 20.4318 59.502 21.2698 59.502C22.1077 59.502 22.8764 59.1175 23.3791 58.4473L31.2893 47.9004C31.8924 47.0962 31.9879 46.0382 31.5382 45.1392C31.0887 44.2401 30.185 43.6816 29.1799 43.6816H26.5908C27.2692 34.1174 35.2664 26.543 45.0002 26.543C48.1216 26.543 51.2319 27.3623 53.9944 28.9123C55.0368 29.4975 56.3418 29.308 57.1748 28.4513L60.9722 24.5468C61.5261 23.9774 61.7938 23.1885 61.7007 22.3996Z" fill="#F9F9F9"/>
<path d="M57.1746 28.4512L60.972 24.5468C61.5259 23.9774 61.7935 23.1884 61.7005 22.3994C61.6075 21.6105 61.1635 20.9055 60.4921 20.4806C55.8575 17.5468 50.5004 15.9961 45 15.9961V26.543C48.1214 26.543 51.2316 27.3623 53.9942 28.9123C55.0366 29.4977 56.3416 29.308 57.1746 28.4512Z" fill="#E2DFF4"/>
<path d="M78.7503 42.0996L70.8402 31.5527C70.3375 30.8825 69.5688 30.498 68.7308 30.498C67.8929 30.498 67.1242 30.8825 66.6214 31.5527L58.7113 42.0996C58.1082 42.9038 58.0127 43.9618 58.4624 44.8608C58.9118 45.7599 59.8155 46.3184 60.8207 46.3184H63.4097C62.7314 55.8826 54.7342 63.457 45.0003 63.457C41.879 63.457 38.7687 62.6377 36.0061 61.0877C34.9638 60.5025 33.6588 60.692 32.8257 61.5488L29.0283 65.4532C28.4744 66.0226 28.2069 66.8116 28.2999 67.6005C28.3929 68.3895 28.8369 69.0945 29.5082 69.5194C34.1429 72.4532 39.5 74.0039 45.0003 74.0039C60.5512 74.0039 73.2813 61.7015 73.973 46.3184H76.641C77.6461 46.3184 78.5498 45.7599 78.9992 44.8608C79.4489 43.9618 79.3534 42.9038 78.7503 42.0996Z" fill="#F9F9F9"/>
<path d="M78.75 42.0996L70.8398 31.5527C70.3371 30.8825 69.5684 30.498 68.7305 30.498C67.8925 30.498 67.1238 30.8825 66.6211 31.5527L58.7109 42.0996C58.1078 42.9038 58.0124 43.9618 58.462 44.8608C58.9115 45.7599 59.8152 46.3184 60.8203 46.3184H63.4094C62.7311 55.8826 54.7339 63.457 45 63.457V74.0039C60.5508 74.0039 73.2809 61.7015 73.9726 46.3184H76.6406C77.6457 46.3184 78.5494 45.7599 78.9989 44.8608C79.4486 43.9618 79.3531 42.9038 78.75 42.0996Z" fill="#E2DFF4"/>
</svg>

<svg width="90" height="90" fill="none" xmlns="http://www.w3.org/2000/svg"><path d="M45 90c24.853 0 45-20.147 45-45S69.853 0 45 0 0 20.147 0 45s20.147 45 45 45z" fill="#FF6B6B"/><path d="M45 0v90c24.853 0 45-20.147 45-45S69.853 0 45 0z" fill="#FF1F3D"/><path d="M61.7 22.4a2.637 2.637 0 00-1.208-1.92A28.918 28.918 0 0045 15.997c-15.55 0-28.28 12.303-28.972 27.686H13.36A2.622 2.622 0 0011 45.139a2.622 2.622 0 00.25 2.761l7.91 10.547a2.614 2.614 0 002.109 1.055c.838 0 1.606-.385 2.11-1.055L31.29 47.9a2.622 2.622 0 00.248-2.76 2.622 2.622 0 00-2.358-1.458h-2.59c.68-9.565 8.676-17.139 18.41-17.139 3.122 0 6.232.82 8.994 2.37a2.636 2.636 0 003.18-.462l3.798-3.904c.554-.57.822-1.358.729-2.147z" fill="#F9F9F9"/><path d="M57.175 28.451l3.797-3.904a2.637 2.637 0 00-.48-4.066A28.92 28.92 0 0045 15.996v10.547c3.121 0 6.232.82 8.994 2.37a2.635 2.635 0 003.18-.462z" fill="#E2DFF4"/><path d="M78.75 42.1l-7.91-10.547a2.614 2.614 0 00-2.11-1.055c-.837 0-1.606.384-2.109 1.055L58.711 42.1a2.622 2.622 0 00-.249 2.76c.45.9 1.353 1.458 2.359 1.458h2.589C62.73 55.883 54.734 63.457 45 63.457c-3.121 0-6.231-.82-8.994-2.37a2.636 2.636 0 00-3.18.462l-3.798 3.904a2.637 2.637 0 00.48 4.066A28.92 28.92 0 0045 74.004c15.551 0 28.281-12.303 28.973-27.686h2.668a2.622 2.622 0 002.358-1.457 2.622 2.622 0 00-.249-2.761z" fill="#F9F9F9"/><path d="M78.75 42.1l-7.91-10.547a2.614 2.614 0 00-2.11-1.055c-.838 0-1.606.384-2.109 1.055L58.711 42.1a2.622 2.622 0 00-.249 2.76c.45.9 1.353 1.458 2.358 1.458h2.59C62.73 55.883 54.733 63.457 45 63.457v10.547c15.55 0 28.28-12.303 28.973-27.686h2.668a2.622 2.622 0 002.358-1.457 2.622 2.622 0 00-.249-2.761z" fill="#E2DFF4"/></svg>
